image/pw3270.svg

<?xml version="1.0" encoding="UTF-8" standalone="no"?>
<!-- Created with Inkscape (http://www.inkscape.org/) -->

<svg
   xmlns:dc="http://purl.org/dc/elements/1.1/"
   xmlns:cc="http://creativecommons.org/ns#"
   xmlns:rdf="http://www.w3.org/1999/02/22-rdf-syntax-ns#"
   xmlns:svg="http://www.w3.org/2000/svg"
   xmlns="http://www.w3.org/2000/svg"
   xmlns:xlink="http://www.w3.org/1999/xlink"
   xmlns:sodipodi="http://sodipodi.sourceforge.net/DTD/sodipodi-0.dtd"
   xmlns:inkscape="http://www.inkscape.org/namespaces/inkscape"
   width="256"
   height="256"
   id="svg2685"
   sodipodi:version="0.32"
   inkscape:version="0.48.1 r9760"
   sodipodi:docname="pw3270.svg"
   inkscape:output_extension="org.inkscape.output.svg.inkscape"
   inkscape:export-filename="/home/perry/Project/3270/v4/image/icon.png"
   inkscape:export-xdpi="90"
   inkscape:export-ydpi="90"
   version="1.1">
  <defs
     id="defs2687">
    <linearGradient
       id="linearGradient3687">
      <stop
         style="stop-color:#ffffff;stop-opacity:1;"
         offset="0"
         id="stop3689" />
      <stop
         style="stop-color:#000000;stop-opacity:1;"
         offset="1"
         id="stop3691" />
    </linearGradient>
    <radialGradient
       inkscape:collect="always"
       xlink:href="#linearGradient3687"
       id="radialGradient2560"
       gradientUnits="userSpaceOnUse"
       gradientTransform="matrix(-1.2214651,1.3481449,-1.1114864,-1.0070438,1777.1401,13.255979)"
       cx="593.03772"
       cy="437.90591"
       fx="593.03772"
       fy="437.90591"
       r="19.115074" />
    <inkscape:perspective
       sodipodi:type="inkscape:persp3d"
       inkscape:vp_x="0 : 32 : 1"
       inkscape:vp_y="0 : 1000 : 0"
       inkscape:vp_z="64 : 32 : 1"
       inkscape:persp3d-origin="32 : 21.333333 : 1"
       id="perspective2693" />
  </defs>
  <sodipodi:namedview
     id="base"
     pagecolor="#ffffff"
     bordercolor="#666666"
     borderopacity="1.0"
     inkscape:pageopacity="0.0"
     inkscape:pageshadow="2"
     inkscape:zoom="0.97227183"
     inkscape:cx="-138.53895"
     inkscape:cy="32"
     inkscape:current-layer="layer1"
     showgrid="true"
     inkscape:document-units="px"
     inkscape:grid-bbox="true"
     inkscape:window-width="1366"
     inkscape:window-height="744"
     inkscape:window-x="0"
     inkscape:window-y="24"
     inkscape:window-maximized="1" />
  <metadata
     id="metadata2690">
    <rdf:RDF>
      <cc:Work
         rdf:about="">
        <dc:format>image/svg+xml</dc:format>
        <dc:type
           rdf:resource="http://purl.org/dc/dcmitype/StillImage" />
      </cc:Work>
    </rdf:RDF>
  </metadata>
  <g
     id="layer1"
     inkscape:label="Layer 1"
     inkscape:groupmode="layer"
     transform="translate(0,192)">
    <g
       id="g3348"
       transform="matrix(5.1775834,0,0,5.1775834,-2744.6594,-2068.6398)"
       inkscape:export-filename="/home/perry/Desktop/g3484.png"
       inkscape:export-xdpi="750"
       inkscape:export-ydpi="750">
      <path
         inkscape:export-ydpi="750"
         inkscape:export-xdpi="750"
         inkscape:export-filename="/home/perry/Desktop/path4684.png"
         sodipodi:nodetypes="ccccc"
         id="path3877"
         d="m 571.75652,365.09989 c -12.28362,1.49404 -24.71615,1.60564 -36.92919,3.70417 1.15828,9.37275 0.97923,23.2044 1.63094,30.14689 11.55053,-1.50408 27.01785,-2.59907 38.36698,-5.35307 -0.036,-8.87303 -1.02762,-19.15 -3.06873,-28.49799 z"
         style="fill:#000000;fill-opacity:1;fill-rule:evenodd;stroke:#cccccc;stroke-width:2.20000005;stroke-linecap:round;stroke-linejoin:round;stroke-miterlimit:4;stroke-opacity:1;stroke-dasharray:none"
         inkscape:connector-curvature="0" />
      <path
         inkscape:export-ydpi="750"
         inkscape:export-xdpi="750"
         inkscape:export-filename="/home/perry/Desktop/path4684.png"
         sodipodi:nodetypes="cccccccccccccccc"
         id="path3879"
         d="m 558.70672,398.73456 c -3.79163,0.10309 -7.64598,0.11185 -11.30721,1.27926 -2.13143,0.66011 -4.04568,2.24121 -4.70985,4.42348 -0.0967,1.1177 0.76001,2.18842 1.46457,3.02352 2.25351,2.29719 5.65545,2.82771 8.73539,2.89271 4.42579,0.006 8.86831,-0.8458 12.96682,-2.52003 1.55025,-0.88162 3.33996,-2.06142 3.56963,-3.9936 -0.59735,-2.25901 -2.87075,-3.51224 -4.96561,-4.11636 -1.84964,-0.54894 -3.83129,-0.95601 -5.75374,-0.98898 z m 0.0446,1.40178 c 2.78739,0.0968 5.75567,0.21409 8.11548,1.83476 0.87991,0.58405 1.95351,1.77677 1.15706,2.83974 -0.76499,1.1501 -2.05182,1.80199 -3.22326,2.45978 -3.23561,1.57133 -6.96349,1.61384 -10.45172,1.06373 -9.12914,-0.40554 -4.60594,-6.64603 1.06647,-7.80087 1.09861,-0.25448 2.19774,-0.40573 3.33597,-0.39714 z"
         style="fill:#b6b6b6;fill-opacity:1;fill-rule:evenodd;stroke:none"
         inkscape:connector-curvature="0" />
      <g
         transform="matrix(0.8126522,0,0,1,135.51705,-68.411175)"
         id="g3881">
        <path
           style="fill:#000000;fill-opacity:1;fill-rule:evenodd;stroke:#00ff00;stroke-width:1;stroke-linecap:round;stroke-linejoin:round;stroke-miterlimit:50.90000153;stroke-opacity:1;stroke-dasharray:3, 3;stroke-dashoffset:0"
           d="m 496.23743,451.70467 c 37.88072,-3.53554 37.62819,-3.53554 37.62819,-3.53554"
           id="path3883"
           inkscape:connector-curvature="0" />
        <path
           style="font-size:9.27298832px;font-style:normal;font-weight:bold;fill:#00ff00;fill-opacity:1;stroke:#00ff00;stroke-width:1px;stroke-linecap:butt;stroke-linejoin:miter;stroke-opacity:0;font-family:Bitstream Vera Sans;-inkscape-font-specification:Sans Bold"
           d="m 496.41233,442.38795 2.69056,-0.26631 c 0.80001,-0.0792 1.40822,0.0667 1.82464,0.43776 0.41931,0.36749 0.61951,0.93195 0.60062,1.69338 -0.019,0.76469 -0.24833,1.37492 -0.68806,1.83067 -0.43685,0.45224 -1.05527,0.71795 -1.85529,0.79713 l -1.06948,0.10586 -0.0627,2.52833 -1.62108,0.16046 0.18082,-7.28728 m 1.58729,1.20133 -0.0505,2.03536 0.89685,-0.0888 c 0.31439,-0.0311 0.55938,-0.14299 0.73498,-0.33567 0.17566,-0.19591 0.26753,-0.45656 0.27561,-0.78196 0.008,-0.3254 -0.0713,-0.56748 -0.23819,-0.72626 -0.16688,-0.15875 -0.4075,-0.22257 -0.7219,-0.19147 l -0.89684,0.0888 m 4.19384,-1.77354 1.5537,-0.15378 0.95492,5.18832 1.20932,-5.40254 1.56212,-0.15461 0.9465,5.18915 1.21774,-5.40337 1.54107,-0.15253 -1.66294,7.43397 -1.8695,0.18504 -1.00361,-5.42695 -1.2659,5.65159 -1.86949,0.18504 -1.31393,-7.13933 m 13.19263,2.04406 c 0.4207,0.085 0.73663,0.27442 0.94775,0.56837 0.214,0.29044 0.31498,0.67808 0.30296,1.16291 -0.0179,0.72239 -0.27018,1.29593 -0.75673,1.72062 -0.48649,0.42144 -1.18728,0.67745 -2.10238,0.76803 -0.32281,0.0319 -0.64626,0.0331 -0.97034,0.004 -0.32136,-0.0266 -0.63914,-0.0844 -0.95336,-0.17343 l 0.036,-1.44965 c 0.29879,0.14571 0.59584,0.2494 0.89113,0.31106 0.29817,0.0581 0.59182,0.0729 0.88095,0.0443 0.42948,-0.0425 0.76005,-0.16124 0.99169,-0.35622 0.23446,-0.19524 0.35568,-0.45393 0.36368,-0.77608 0.008,-0.3319 -0.10345,-0.57079 -0.33503,-0.71665 -0.22872,-0.1494 -0.57184,-0.20145 -1.02939,-0.15618 l -0.64842,0.0642 0.03,-1.21047 0.68211,-0.0675 c 0.40702,-0.0403 0.712,-0.1435 0.91493,-0.30966 0.20302,-0.16941 0.30828,-0.40542 0.31579,-0.70805 0.007,-0.27983 -0.0845,-0.48663 -0.27442,-0.62041 -0.18989,-0.13376 -0.46168,-0.18313 -0.81537,-0.14814 -0.26105,0.0258 -0.52577,0.0861 -0.79413,0.18086 -0.26837,0.0947 -0.53613,0.22186 -0.80331,0.38138 l 0.0341,-1.37642 c 0.32259,-0.1358 0.64172,-0.2453 0.95741,-0.32848 0.31568,-0.0832 0.6251,-0.13977 0.92826,-0.16979 0.81685,-0.0808 1.42351,0.0149 1.81998,0.28729 0.39934,0.26884 0.59127,0.71565 0.57577,1.3404 -0.0106,0.42629 -0.1161,0.78567 -0.31657,1.07816 -0.20039,0.28927 -0.49143,0.50796 -0.87312,0.6561 m 4.39998,2.10611 2.76635,-0.27381 -0.0343,1.3813 -4.56848,0.45219 0.0343,-1.38131 2.35302,-2.57489 c 0.21024,-0.23504 0.36703,-0.45992 0.47036,-0.67465 0.10334,-0.21472 0.15774,-0.43272 0.16324,-0.65399 0.008,-0.34167 -0.0844,-0.60676 -0.27848,-0.7953 -0.19133,-0.1888 -0.45121,-0.26694 -0.77963,-0.23445 -0.25263,0.025 -0.5307,0.11584 -0.8342,0.27247 -0.30343,0.15338 -0.62944,0.37068 -0.97804,0.65186 l 0.0397,-1.60096 c 0.36838,-0.17603 0.73172,-0.31748 1.08999,-0.42437 0.35835,-0.11012 0.70876,-0.18212 1.05122,-0.21603 0.75228,-0.0745 1.33139,0.0597 1.73731,0.40259 0.40872,0.34257 0.60456,0.85715 0.58752,1.54373 -0.01,0.397 -0.10747,0.77671 -0.29287,1.13912 -0.18533,0.35918 -0.56865,0.8548 -1.14996,1.48687 l -1.37709,1.49963 m 4.23502,-6.31064 4.7369,-0.46886 -0.0263,1.05916 -2.60509,6.47067 -1.57897,0.15629 2.46658,-6.13561 -3.02741,0.29965 0.0343,-1.3813 m 9.29515,2.70736 c 0.0226,-0.91111 -0.0359,-1.54479 -0.17544,-1.90102 -0.13669,-0.35974 -0.37906,-0.5224 -0.72714,-0.48796 -0.34807,0.0345 -0.60114,0.24616 -0.75919,0.63508 -0.15799,0.38568 -0.24828,1.03408 -0.27088,1.94519 -0.0229,0.92088 0.0354,1.56268 0.17484,1.92541 0.1394,0.36274 0.38314,0.52689 0.73122,0.49243 0.34526,-0.0342 0.59696,-0.24736 0.75511,-0.63954 0.15814,-0.39219 0.24863,-1.04872 0.27148,-1.96959 m 1.62071,-0.14581 c -0.03,1.20722 -0.27765,2.16172 -0.74308,2.86347 -0.46537,0.6985 -1.11069,1.0886 -1.93596,1.17029 -0.82807,0.082 -1.45856,-0.18186 -1.89146,-0.79146 -0.43282,-0.61284 -0.63425,-1.52288 -0.6043,-2.73011 0.03,-1.21048 0.27773,-2.16496 0.74309,-2.86347 0.46544,-0.70176 1.1122,-1.09361 1.94028,-1.17559 0.82527,-0.0817 1.45431,0.18391 1.88714,0.79676 0.43289,0.6096 0.63432,1.51963 0.60429,2.73011"
           id="path3885"
           inkscape:connector-curvature="0" />
        <path
           style="fill:#000000;fill-opacity:1;fill-rule:evenodd;stroke:#00ff00;stroke-width:1;stroke-linecap:round;stroke-linejoin:round;stroke-miterlimit:50.90000153;stroke-opacity:1;stroke-dasharray:3, 3;stroke-dashoffset:0"
           d="m 498.4652,453.42295 c 37.88072,-3.53554 37.62819,-3.53554 37.62819,-3.53554"
           id="path3887"
           inkscape:connector-curvature="0" />
        <path
           style="fill:#000000;fill-opacity:1;fill-rule:evenodd;stroke:#00ff00;stroke-width:1;stroke-linecap:round;stroke-linejoin:round;stroke-miterlimit:50.90000153;stroke-opacity:1;stroke-dasharray:3, 3;stroke-dashoffset:0"
           d="m 496.77866,455.87356 c 37.88072,-3.53554 37.62819,-3.53554 37.62819,-3.53554"
           id="path3889"
           inkscape:connector-curvature="0" />
        <path
           style="fill:#000000;fill-opacity:1;fill-rule:evenodd;stroke:#00ff00;stroke-width:1;stroke-linecap:round;stroke-linejoin:round;stroke-miterlimit:50.90000153;stroke-opacity:1;stroke-dasharray:3, 3;stroke-dashoffset:0"
           d="m 499.54207,457.86404 c 37.88072,-3.53554 37.62819,-3.53554 37.62819,-3.53554"
           id="path3891"
           inkscape:connector-curvature="0" />
      </g>
      <path
         inkscape:export-ydpi="750"
         inkscape:export-xdpi="750"
         inkscape:export-filename="/home/perry/Desktop/path4684.png"
         sodipodi:nodetypes="ccccc"
         id="path3893"
         d="m 571.18683,366.21059 c -11.74072,1.38257 -23.62379,1.48585 -35.29705,3.42783 1.10709,8.67351 0.93595,21.47328 1.55887,27.89784 11.04002,-1.39187 25.82375,-2.40517 36.67128,-4.95371 -0.0344,-8.21108 -0.9822,-17.72136 -2.9331,-26.37196 z"
         style="opacity:0.43404254;fill:url(#radialGradient2560);fill-opacity:1;fill-rule:evenodd;stroke:#cccccc;stroke-width:0;stroke-linecap:round;stroke-linejoin:round;stroke-miterlimit:4;stroke-opacity:1;stroke-dasharray:none"
         inkscape:connector-curvature="0" />
    </g>
  </g>
</svg>

<?xml version="1.0" encoding="UTF-8" standalone="no"?>
<!-- Created with Inkscape (http://www.inkscape.org/) -->
<svg
   xmlns:dc="http://purl.org/dc/elements/1.1/"
   xmlns:cc="http://creativecommons.org/ns#"
   xmlns:rdf="http://www.w3.org/1999/02/22-rdf-syntax-ns#"
   xmlns:svg="http://www.w3.org/2000/svg"
   xmlns="http://www.w3.org/2000/svg"
   xmlns:xlink="http://www.w3.org/1999/xlink"
   xmlns:sodipodi="http://sodipodi.sourceforge.net/DTD/sodipodi-0.dtd"
   xmlns:inkscape="http://www.inkscape.org/namespaces/inkscape"
   width="64px"
   height="64px"
   id="svg2685"
   sodipodi:version="0.32"
   inkscape:version="0.46"
   sodipodi:docname="icon.svg"
   inkscape:output_extension="org.inkscape.output.svg.inkscape"
   inkscape:export-filename="/home/perry/Project/3270/v4/image/icon.png"
   inkscape:export-xdpi="90"
   inkscape:export-ydpi="90">
  <defs
     id="defs2687">
    <linearGradient
       id="linearGradient3687">
      <stop
         style="stop-color:#ffffff;stop-opacity:1;"
         offset="0"
         id="stop3689" />
      <stop
         style="stop-color:#000000;stop-opacity:1;"
         offset="1"
         id="stop3691" />
    </linearGradient>
    <radialGradient
       inkscape:collect="always"
       xlink:href="#linearGradient3687"
       id="radialGradient2560"
       gradientUnits="userSpaceOnUse"
       gradientTransform="matrix(-1.2214651,1.3481449,-1.1114864,-1.0070438,1777.1401,13.255979)"
       cx="593.03772"
       cy="437.90591"
       fx="593.03772"
       fy="437.90591"
       r="19.115075" />
    <inkscape:perspective
       sodipodi:type="inkscape:persp3d"
       inkscape:vp_x="0 : 32 : 1"
       inkscape:vp_y="0 : 1000 : 0"
       inkscape:vp_z="64 : 32 : 1"
       inkscape:persp3d-origin="32 : 21.333333 : 1"
       id="perspective2693" />
  </defs>
  <sodipodi:namedview
     id="base"
     pagecolor="#ffffff"
     bordercolor="#666666"
     borderopacity="1.0"
     inkscape:pageopacity="0.0"
     inkscape:pageshadow="2"
     inkscape:zoom="5.5"
     inkscape:cx="39.909091"
     inkscape:cy="32"
     inkscape:current-layer="layer1"
     showgrid="true"
     inkscape:document-units="px"
     inkscape:grid-bbox="true"
     inkscape:window-width="1280"
     inkscape:window-height="971"
     inkscape:window-x="0"
     inkscape:window-y="0" />
  <metadata
     id="metadata2690">
    <rdf:RDF>
      <cc:Work
         rdf:about="">
        <dc:format>image/svg+xml</dc:format>
        <dc:type
           rdf:resource="http://purl.org/dc/dcmitype/StillImage" />
      </cc:Work>
    </rdf:RDF>
  </metadata>
  <g
     id="layer1"
     inkscape:label="Layer 1"
     inkscape:groupmode="layer">
    <g
       id="g3348"
       transform="matrix(1.331,0,0,1.331,-706.47379,-483.33222)"
       inkscape:export-filename="/home/perry/Desktop/g3484.png"
       inkscape:export-xdpi="750"
       inkscape:export-ydpi="750">
      <path
         inkscape:export-ydpi="750"
         inkscape:export-xdpi="750"
         inkscape:export-filename="/home/perry/Desktop/path4684.png"
         sodipodi:nodetypes="ccccc"
         id="path3877"
         d="M 571.75652,365.09989 C 559.4729,366.59393 547.04037,366.70553 534.82733,368.80406 C 535.98561,378.17681 535.80656,392.00846 536.45827,398.95095 C 548.0088,397.44687 563.47612,396.35188 574.82525,393.59788 C 574.78925,384.72485 573.79763,374.44788 571.75652,365.09989 z"
         style="fill:#000000;fill-opacity:1;fill-rule:evenodd;stroke:#cccccc;stroke-width:2.20000005;stroke-linecap:round;stroke-linejoin:round;stroke-miterlimit:4;stroke-dasharray:none;stroke-opacity:1" />
      <path
         inkscape:export-ydpi="750"
         inkscape:export-xdpi="750"
         inkscape:export-filename="/home/perry/Desktop/path4684.png"
         sodipodi:nodetypes="cccccccccccccccc"
         id="path3879"
         d="M 558.70672,398.73456 C 554.91509,398.83765 551.06074,398.84641 547.39951,400.01382 C 545.26808,400.67393 543.35383,402.25503 542.68966,404.4373 C 542.59295,405.555 543.44967,406.62572 544.15423,407.46082 C 546.40774,409.75801 549.80968,410.28853 552.88962,410.35353 C 557.31541,410.35924 561.75793,409.50773 565.85644,407.8335 C 567.40669,406.95188 569.1964,405.77208 569.42607,403.8399 C 568.82872,401.58089 566.55532,400.32766 564.46046,399.72354 C 562.61082,399.1746 560.62917,398.76753 558.70672,398.73456 z M 558.75136,400.13634 C 561.53875,400.23312 564.50703,400.35043 566.86684,401.9711 C 567.74675,402.55515 568.82035,403.74787 568.0239,404.81084 C 567.25891,405.96094 565.97208,406.61283 564.80064,407.27062 C 561.56503,408.84195 557.83715,408.88446 554.34892,408.33435 C 545.21978,407.92881 549.74298,401.68832 555.41539,400.53348 C 556.514,400.279 557.61313,400.12775 558.75136,400.13634 z"
         style="fill:#b6b6b6;fill-opacity:1;fill-rule:evenodd;stroke:none;stroke-width:1px;stroke-linecap:butt;stroke-linejoin:miter;stroke-opacity:1" />
      <g
         transform="matrix(0.8126522,0,0,1,135.51705,-68.411175)"
         id="g3881">
        <path
           style="fill:#000000;fill-opacity:1;fill-rule:evenodd;stroke:#00ff00;stroke-width:1;stroke-linecap:round;stroke-linejoin:round;stroke-miterlimit:50.90000153;stroke-dasharray:3, 3;stroke-dashoffset:0;stroke-opacity:1"
           d="M 496.23743,451.70467 C 534.11815,448.16913 533.86562,448.16913 533.86562,448.16913"
           id="path3883" />
        <path
           style="font-size:9.27298832px;font-style:normal;font-weight:bold;fill:#00ff00;fill-opacity:1;stroke:#00ff00;stroke-width:1px;stroke-linecap:butt;stroke-linejoin:miter;stroke-opacity:0;font-family:Bitstream Vera Sans;-inkscape-font-specification:Sans Bold"
           d="M 496.41233,442.38795 L 499.10289,442.12164 C 499.9029,442.04246 500.51111,442.18838 500.92753,442.5594 C 501.34684,442.92689 501.54704,443.49135 501.52815,444.25278 C 501.50917,445.01747 501.27982,445.6277 500.84009,446.08345 C 500.40324,446.53569 499.78482,446.8014 498.9848,446.88058 L 497.91532,446.98644 L 497.85259,449.51477 L 496.23151,449.67523 L 496.41233,442.38795 M 497.99962,443.58928 L 497.94911,445.62464 L 498.84596,445.53587 C 499.16035,445.50477 499.40534,445.39288 499.58094,445.2002 C 499.7566,445.00429 499.84847,444.74364 499.85655,444.41824 C 499.86462,444.09284 499.78522,443.85076 499.61836,443.69198 C 499.45148,443.53323 499.21086,443.46941 498.89646,443.50051 L 497.99962,443.58928 M 502.19346,441.81574 L 503.74716,441.66196 L 504.70208,446.85028 L 505.9114,441.44774 L 507.47352,441.29313 L 508.42002,446.48228 L 509.63776,441.07891 L 511.17883,440.92638 L 509.51589,448.36035 L 507.64639,448.54539 L 506.64278,443.11844 L 505.37688,448.77003 L 503.50739,448.95507 L 502.19346,441.81574 M 515.38609,443.8598 C 515.80679,443.94476 516.12272,444.13422 516.33384,444.42817 C 516.54784,444.71861 516.64882,445.10625 516.6368,445.59108 C 516.61887,446.31347 516.36662,446.88701 515.88007,447.3117 C 515.39358,447.73314 514.69279,447.98915 513.77769,448.07973 C 513.45488,448.11168 513.13143,448.11285 512.80735,448.08326 C 512.48599,448.05664 512.16821,447.99882 511.85399,447.90983 L 511.88997,446.46018 C 512.18876,446.60589 512.48581,446.70958 512.7811,446.77124 C 513.07927,446.82936 513.37292,446.84412 513.66205,446.8155 C 514.09153,446.77299 514.4221,446.65426 514.65374,446.45928 C 514.8882,446.26404 515.00942,446.00535 515.01742,445.6832 C 515.02565,445.3513 514.91397,445.11241 514.68239,444.96655 C 514.45367,444.81715 514.11055,444.7651 513.653,444.81037 L 513.00458,444.87455 L 513.03461,443.66408 L 513.71672,443.59656 C 514.12374,443.55629 514.42872,443.45306 514.63165,443.2869 C 514.83467,443.11749 514.93993,442.88148 514.94744,442.57885 C 514.95439,442.29902 514.86291,442.09222 514.67302,441.95844 C 514.48313,441.82468 514.21134,441.77531 513.85765,441.8103 C 513.5966,441.83615 513.33188,441.89643 513.06352,441.99116 C 512.79515,442.08589 512.52739,442.21302 512.26021,442.37254 L 512.29436,440.99612 C 512.61695,440.86032 512.93608,440.75082 513.25177,440.66764 C 513.56745,440.58446 513.87687,440.52787 514.18003,440.49785 C 514.99688,440.41701 515.60354,440.51277 516.00001,440.78514 C 516.39935,441.05398 516.59128,441.50079 516.57578,442.12554 C 516.5652,442.55183 516.45968,442.91121 516.25921,443.2037 C 516.05882,443.49297 515.76778,443.71166 515.38609,443.8598 M 519.78607,445.96591 L 522.55242,445.6921 L 522.51815,447.0734 L 517.94967,447.52559 L 517.98395,446.14428 L 520.33697,443.56939 C 520.54721,443.33435 520.704,443.10947 520.80733,442.89474 C 520.91067,442.68002 520.96507,442.46202 520.97057,442.24075 C 520.97904,441.89908 520.88621,441.63399 520.69209,441.44545 C 520.50076,441.25665 520.24088,441.17851 519.91246,441.211 C 519.65983,441.23602 519.38176,441.32684 519.07826,441.48347 C 518.77483,441.63685 518.44882,441.85415 518.10022,442.13533 L 518.13995,440.53437 C 518.50833,440.35834 518.87167,440.21689 519.22994,440.11 C 519.58829,439.99988 519.9387,439.92788 520.28116,439.89397 C 521.03344,439.81952 521.61255,439.95372 522.01847,440.29656 C 522.42719,440.63913 522.62303,441.15371 522.60599,441.84029 C 522.59614,442.23729 522.49852,442.617 522.31312,442.97941 C 522.12779,443.33859 521.74447,443.83421 521.16316,444.46628 L 519.78607,445.96591 M 524.02109,439.65527 L 528.75799,439.18641 L 528.73171,440.24557 L 526.12662,446.71624 L 524.54765,446.87253 L 527.01423,440.73692 L 523.98682,441.03657 L 524.02109,439.65527 M 533.31624,442.36263 C 533.33885,441.45152 533.28037,440.81784 533.1408,440.46161 C 533.00411,440.10187 532.76174,439.93921 532.41366,439.97365 C 532.06559,440.00811 531.81252,440.21981 531.65447,440.60873 C 531.49648,440.99441 531.40619,441.64281 531.38359,442.55392 C 531.36074,443.4748 531.41901,444.1166 531.55843,444.47933 C 531.69783,444.84207 531.94157,445.00622 532.28965,444.97176 C 532.63491,444.93759 532.88661,444.7244 533.04476,444.33222 C 533.2029,443.94003 533.29339,443.2835 533.31624,442.36263 M 534.93695,442.21682 C 534.90699,443.42404 534.6593,444.37854 534.19387,445.08029 C 533.7285,445.77879 533.08318,446.16889 532.25791,446.25058 C 531.42984,446.33254 530.79935,446.06872 530.36645,445.45912 C 529.93363,444.84628 529.7322,443.93624 529.76215,442.72901 C 529.79219,441.51853 530.03988,440.56405 530.50524,439.86554 C 530.97068,439.16378 531.61744,438.77193 532.44552,438.68995 C 533.27079,438.60828 533.89983,438.87386 534.33266,439.48671 C 534.76555,440.09631 534.96698,441.00634 534.93695,442.21682"
           id="path3885" />
        <path
           style="fill:#000000;fill-opacity:1;fill-rule:evenodd;stroke:#00ff00;stroke-width:1;stroke-linecap:round;stroke-linejoin:round;stroke-miterlimit:50.90000153;stroke-dasharray:3, 3;stroke-dashoffset:0;stroke-opacity:1"
           d="M 498.4652,453.42295 C 536.34592,449.88741 536.09339,449.88741 536.09339,449.88741"
           id="path3887" />
        <path
           style="fill:#000000;fill-opacity:1;fill-rule:evenodd;stroke:#00ff00;stroke-width:1;stroke-linecap:round;stroke-linejoin:round;stroke-miterlimit:50.90000153;stroke-dasharray:3, 3;stroke-dashoffset:0;stroke-opacity:1"
           d="M 496.77866,455.87356 C 534.65938,452.33802 534.40685,452.33802 534.40685,452.33802"
           id="path3889" />
        <path
           style="fill:#000000;fill-opacity:1;fill-rule:evenodd;stroke:#00ff00;stroke-width:1;stroke-linecap:round;stroke-linejoin:round;stroke-miterlimit:50.90000153;stroke-dasharray:3, 3;stroke-dashoffset:0;stroke-opacity:1"
           d="M 499.54207,457.86404 C 537.42279,454.3285 537.17026,454.3285 537.17026,454.3285"
           id="path3891" />
      </g>
      <path
         inkscape:export-ydpi="750"
         inkscape:export-xdpi="750"
         inkscape:export-filename="/home/perry/Desktop/path4684.png"
         sodipodi:nodetypes="ccccc"
         id="path3893"
         d="M 571.18683,366.21059 C 559.44611,367.59316 547.56304,367.69644 535.88978,369.63842 C 536.99687,378.31193 536.82573,391.1117 537.44865,397.53626 C 548.48867,396.14439 563.2724,395.13109 574.11993,392.58255 C 574.08553,384.37147 573.13773,374.86119 571.18683,366.21059 z"
         style="opacity:0.43404254;fill:url(#radialGradient2560);fill-opacity:1;fill-rule:evenodd;stroke:#cccccc;stroke-width:0;stroke-linecap:round;stroke-linejoin:round;stroke-miterlimit:4;stroke-dasharray:none;stroke-opacity:1" />
    </g>
  </g>
</svg>
